assets/sonr-icons/attachment.svg

<svg xmlns="http://www.w3.org/2000/svg" width="24" height="24" fill="none" viewBox="0 0 24 24"><path fill="#000" d="M5.567 17.433C3.472 15.338 3.472 11.942 5.567 9.84801L9.707 5.70801C10.098 5.31701 10.098 4.68401 9.707 4.29301C9.316 3.90201 8.68299 3.90201 8.292 4.29301L4.152 8.43301C1.276 11.308 1.276 15.971 4.152 18.848C7.028 21.725 11.69 21.723 14.567 18.848L20.457 12.958C22.505 10.911 22.505 7.59101 20.457 5.54401C18.409 3.49701 15.09 3.49601 13.043 5.54401L7.293 11.294C6.074 12.513 6.074 14.489 7.293 15.709C8.512 16.929 10.488 16.928 11.708 15.709L15.708 11.709C16.099 11.318 16.099 10.685 15.708 10.295C15.317 9.90501 14.684 9.90401 14.293 10.295L10.293 14.295C9.855 14.733 9.145 14.733 8.708 14.295C8.271 13.857 8.27 13.147 8.708 12.71L14.458 6.96001C15.724 5.69401 17.778 5.69401 19.043 6.96001C20.308 8.22601 20.309 10.279 19.043 11.545L13.153 17.435C11.058 19.53 7.66199 19.53 5.567 17.435V17.433Z"/></svg>

<svg xmlns="http://www.w3.org/2000/svg" width="24" height="24" fill="none"><path fill="currentColor" d="M5.567 17.433a5.363 5.363 0 0 1 0-7.585l4.14-4.14a1 1 0 1 0-1.415-1.415l-4.14 4.14a7.365 7.365 0 0 0 10.415 10.415l5.89-5.89a5.242 5.242 0 1 0-7.414-7.414l-5.75 5.75a3.122 3.122 0 0 0 4.415 4.415l4-4a1.001 1.001 0 0 0-1.415-1.414l-4 4a1.12 1.12 0 1 1-1.585-1.585l5.75-5.75a3.242 3.242 0 0 1 4.585 4.585l-5.89 5.89a5.364 5.364 0 0 1-7.586 0z"/></svg>
